public/images/svg/icon-one-click.svg

<svg fill="none" height="16" viewBox="0 0 16 16" width="16" xmlns="http://www.w3.org/2000/svg"><g fill="#181818"><path d="m6.69653 2.30713-1.9133 4.78325-4.78325367 1.91331 4.78325367 1.91331 1.9133 4.7832 1.91331-4.7832 4.78326-1.91331-4.78326-1.91331z"/><path d="m12.8419 0-.9023 2.25576-2.25575.9023 2.25575.90231.9023 2.25576.9023-2.25576 2.2558-.90231-2.2558-.9023z"/><path d="m11.6464 12.1619.5759 1.3438-.5759 1.3438 1.3438-.5759 1.3438.5759-.5759-1.3438.5759-1.3438-1.3438.5759z"/></g></svg>

<svg width="16" height="16" viewBox="0 0 16 16" fill="none" xmlns="http://www.w3.org/2000/svg">
<path d="M6.69653 2.30713L4.78323 7.09038L-2.36674e-05 9.00369L4.78323 10.917L6.69653 15.7002L8.60984 10.917L13.3931 9.00369L8.60984 7.09038L6.69653 2.30713Z" fill="#181818"/>
<path d="M12.8419 0L11.9396 2.25576L9.68385 3.15806L11.9396 4.06037L12.8419 6.31613L13.7442 4.06037L16 3.15806L13.7442 2.25576L12.8419 0Z" fill="#181818"/>
<path d="M11.6464 12.1619L12.2223 13.5057L11.6464 14.8495L12.9902 14.2736L14.334 14.8495L13.7581 13.5057L14.334 12.1619L12.9902 12.7378L11.6464 12.1619Z" fill="#181818"/>
</svg>
